X: 892
T: Gördüm Seni Sevdim Güzelim
C: İrfan Doğrusöz
O: Turkey
F: http://compmusic.upf.edu/node/140
N: acemasiran--sarki--aksak--gordum_seni--irfan_dogrusoz
N: makam= acemasiran
N: form= sarki
N: usul= aksak = 9/8
M: 9/8
L: 1/16
K: C _B   
Q: 1/4=216
%%MIDI tuningsystem comma53
f3e f2a2 g2f2 e4 d2 | .f2 e14z2  | d3c d2f2 e2d2 c4 =B2 | \
w:  ARANAĞME  |   |   | 
.d2 c6z4d2 c2BA  | 
w:   | 
B4 z14 | A2 B2c2 d2c2 B2A2 G2F2  | f2e2 d2c2 B2A2 G2F2 A2 | \
w:   |   |   | 
G4z8A2 G2FE  | 
w:   | 
F6c2 d2e2 f6 | f3ef2 a2g2 f2e4d2  | .f2e14 z2 | \
w:   |  ARANAĞME  |   | 
d3cd2 f2e2 d2c4=B2  | 
w:   | 
.d2c6 z4 d2c2 BA | B4z14  | A2B2 c2d2 c2B2 A2G2 F2 | \
w:   |   |   | 
f2 e2d2 c2B2 A2G2 F2A2  | 
w:   | 
G4 z8 A2G2 FE | F6 c2d2 e2f6  | c4 f4 e2f2 a2g2 f2 | \
w:   |   |  Gör düm  se ni  sev  | 
e3dde dcc8-c2  | 
w:  dim  *  gü *  ze *  lim   | 
c4 d2e2 f2e2 f2g2 g{a}f | f6 .e.d.c.B .A.GF6  | \
w:  gon ca  i  ter  |  sin   SAZ  | 
c4 f4 e2f2 a2g2 f2 | 
w:  Gör düm  se ni  sev  | 
e3dde dcc8-c2  | c4 d2e2 f2e2 f2g2 g{a}f | \
w:  dim  *  gü *  ze *  lim   |  gon ca  i  ter  | 
f6 c2d2 e2f6  | 
w:  sin   SAZ  | 
f3g a2g2 f2e2 f4 ed | d3ef2 e2e2 d2d2 c2dc  | \
w:  Sev *  mek  *  mi  gü zel   |  yok *  sa  se vil *  mek   | 
c4 z8 d2c2 BA | 
w:  mi  ne  der  | 
B4z14  | A3B c2d2 c2B2 A2G2 F2 | f2 e2d2 c2B2 A2G2 F2A2  | \
w:  sin    |  Sev *  mek  *  mi  gü zel   |  yok *  sa  se vil *  mek   | 
G4 z8 A2G2 FE | 
w:  mi  ne  der  | 
F6 c2d2 e2f6  | f3g a2g2 f2e2 f4 ed | \
w:  sin   SAZ  |  Sev *  mek  *  mi  gü zel   | 
d3ef2 e2e2 d2d2 c2dc  | 
w:  yok *  sa  se vil *  mek   | 
c4 z8 d2c2 BA | B4z14  | A3B c2d2 c2B2 A2G2 F2 | \
w:  mi  ne  der  |  sin    |  Sev *  mek  *  mi  gü zel   | 
f2 e2d2 c2B2 A2G2 F2A2  | 
w:  yok *  sa  se vil *  mek   | 
G4 z8 A2G2 FE | F6 c2_2/4B2 _3/4d2c6  | \
w:  mi  ne  der  |  sin   SAZ  | 
c4 c3_3/4d c_2/4BAB .c6 | c4_2/4d2 e2f4e2 =d2c2  | 
w:  Ben_ ağ *  lı *  yo *  rum   |  sen  de  mi  bî tâb   | 
c4 d2e2 f2e2 f2g2 gf | f6 c2_2/4B2 _3/4d2c6  | \
w:  *  ı  ke der  |  sin   SAZ  | 
c4 c3_3/4d c_2/4BAB .c6 | 
w:  Ben_ ağ *  lı *  yo *  rum   | 
c4_2/4d2 e2f4e2 =d2c2  | c4 d2e2 f2e2 f2g2 gf | \
w:  sen  de  mi  bî tâb   |  *  ı  ke der  | 
f6 c2d2 e2f6  | 
w:  sin   SAZ  | 
f3g a2g2 f2e2 f4 ed | d3ef2 e2e2 d2d2 c2dc  | \
w:  Sev *  mek  *  mi  gü zel   |  yok *  sa  se vil *  mek   | 
c4 z8 d2c2 BA | 
w:  mi  ne  der  | 
B4z14  | A3B c2d2 c2B2 A2G2 F2 | f2 e2d2 c2B2 A2G2 F2A2  | \
w:  sin    |  Sev *  mek  *  mi  gü zel   |  yok *  sa  se vil *  mek   | 
G4 z8 A2G2 FE | 
w:  mi  ne  der  | 
F6 c2d2 e2f6  | f3g a2g2 f2e2 f4 ed | \
w:  sin   SAZ  |  Sev *  mek  *  mi  gü zel   | 
d3ef2 e2e2 d2d2 c2dc  | 
w:  yok *  sa  se vil *  mek   | 
c4 z8 d2c2 BA | B4z14  | A3B c2d2 c2B2 A2G2 F2 | \
w:  mi  ne  der  |  sin    |  Sev *  mek  *  mi  gü zel   | 
f2 e2d2 c2B2 A2G2 F2A2  | 
w:  yok *  sa  se vil *  mek   | 
G4 z8 A2G2 FE | F6 |
w:  mi  ne  der  |  sin    | 


